!!!!SEGMENT: pl-wtm--r-1534_stefani-jozef--kwieciarka.krn
!!!cenid: 18xx:2242
!!!COM: Stefani, Józef
!!!COM-rism: pe30024097
!!!CDT: 1800/04/16-1876/03/19
!!!CNT: Polish
!!!OTL: Kwieciarka
!!!PDT:
!!!AGN:
!!!SMS-siglum: PL-Wtm
!!!SMS-shelfmark: R 1534
!!!NIFC-rismID: 1001120472
!!!URL-scan: http://repozytorium.nifc.pl/skany/pl-wtm-nut--r1534
!!!ONB-nifc:
!!!SMS-variant:
!!!SMS-altvar:
!!!OMD: Allegro mod.to.
**kern	**dynam	**kern	**dynam	**kern	**text	**dynam	**kern	**dynam	**kern	**dynam	**kern	**dynam	**kern	**dynam	**kern	**dynam	**kern	**dynam	**kern	**dynam
*	*	*	*	*	*	*	*	*	*gropu1	*	*group1	*	*	*	*	*	*	*	*	*
*	*	*	*	*	*	*	*	*	*I""Violini	*	*I""Violini	*	*	*	*	*	*	*	*	*
*part10	*part10	*part9	*part9	*part8	*part8	*part8	*part7	*part7	*part6	*part6	*part5	*part5	*part4	*part4	*part3	*part3	*part2	*part2	*part1	*part1
*staff10	*	*staff9	*	*staff8	*staff8	*	*staff7	*	*staff6	*	*staff5	*	*staff4	*	*staff3	*	*staff2	*	*staff1	*
*I"C:Baſsi	*	*I"Violoncelli	*	*I"Voce	*	*	*I"Viole	*	*	*	*	*	*I"Corni in C	*	*I"Fagotti	*	*I"in A Clarinetti	*	*I"Flauto	*
*clefF4	*	*clefF4	*	*clefG2	*	*	*clefC3	*	*clefG2	*	*clefG2	*	*clefG2	*	*clefF4	*	*clefG2	*	*clefG2	*
*ITrd0c0	*	*	*	*	*	*	*	*	*	*	*	*	*ITrd0c0	*	*	*	*ITrd2c3	*	*	*
*k[f#c#g#]	*	*k[f#c#g#]	*	*k[f#c#g#]	*	*	*k[f#c#g#]	*	*k[f#c#g#]	*	*k[f#c#g#]	*	*k[]	*	*k[f#c#g#]	*	*k[f#c#g#]	*	*k[f#c#g#]	*
*	*	*	*	*	*	*	*	*	*	*	*	*	*	*	*	*	*	*	*	*
*M2/4	*	*M2/4	*	*M2/4	*	*	*M2/4	*	*M2/4	*	*M2/4	*	*M2/4	*	*M2/4	*	*M2/4	*	*M2/4	*
*all\right	*	*all\right	*	*all\right	*	*	*all\right	*	*all\right	*	*all\right	*	*all\right	*	*all\right	*	*all\right	*	*all\right	*
!	!	!	!	!	!	!	!	!	!	!LO:DY:rj	!	!LO:DY:rj	!LO:TX:t=P:problem:brak znaków przy kluczu	!	!	!	!	!	!	!
16E\	.	16E\	f	16r	.	.	16E/ 16B	.	16e/ 16b	f	16g#\ 16ee	f	16e/ 16ee	.	16G#\ 16B	.	16g#\ 16ee	.	16eee\	f
=1	=1	=1	=1	=1	=1	=1	=1	=1	=1	=1	=1	=1	=1	=1	=1	=1	=1	=1	=1	=1
*	*	*	*	*	*	*	*	*	*	*	*	*	*^	*	*	*	*^	*	*	*
!	!	!LO:TX:t=//	!	!	!	!	!	!	!	!	!	!	!	!	!	!	!	!	!	!	!	!
4.E\	.	4.E\yy	.	2r	.	.	4.E/ 4.B	.	4.e/ 4.b	.	4.g#\ 4.ee	.	4.ee/	4.e/	.	4.G#\ 4.B	.	4.ee\	4.g#\	.	4.eee\	.
*	*	*	*	*	*	*	*	*	*	*	*	*	*	*	*	*	*	*Xtuplet	*	*	*	*
!	!	!	!	!	!	!	!	!	!	!	!	!	!	!	!	!	!	!LO:TUP:problem:brak klamry:global	!	!	!LO:TUP:a:problem:klamra łukowa	!
8r	.	8ryy	.	.	.	.	8r	.	8r	.	8r	.	8ee/	8dd\	.	8E\ 8G#	.	(24b/LL	8g#\	.	24bb\LL	.
.	.	.	.	.	.	.	.	.	.	.	.	.	.	.	.	.	.	24cc#/	.	.	24ccc#\	.
.	.	.	.	.	.	.	.	.	.	.	.	.	.	.	.	.	.	24dd/JJ	.	.	24ddd\JJ	.
=2	=2	=2	=2	=2	=2	=2	=2	=2	=2	=2	=2	=2	=2	=2	=2	=2	=2	=2	=2	=2	=2	=2
4r	.	4ryy	.	2r	.	.	4r	.	4r	.	4r	.	4.ee/	4.cc#X\	.	4.AA\ 4.A	.	4.cc#/)	4.a\	.	4.ccc#\	.
8.r	.	8.ryy	.	.	.	.	8.r	.	8.r	.	8.r	.	.	.	.	.	.	.	.	.	.	.
.	.	.	.	.	.	.	.	.	.	.	.	.	16r	16ryy	.	16r	.	16r	16ryy	.	16r	.
!	!	!	!	!	!	!	!	!	!	!	!	!LO:DY:rj	!	!	!	!	!	!	!	!	!	!
16E#X\	.	16E#X\yy	.	.	.	.	16E#X/ 16c#	.	16c#/ 16g#	.	16e#X/ 16cc#	f	16cc#X/	16cc#X\	.	16E#X\ 16G#	.	16cc#/	16g#\	.	16ccc#\	.
=3	=3	=3	=3	=3	=3	=3	=3	=3	=3	=3	=3	=3	=3	=3	=3	=3	=3	=3	=3	=3	=3	=3
4.E#X\	.	4.E#X\yy	.	2r	.	.	4.E#X/ 4.c#	.	4.c#/ 4.g#	.	4.e#X/ 4.cc#	.	4.cc#X/	4.cc#\	.	4.E#X\ 4.G#	.	4.cc#/	4.g#\	.	4.ccc#\	.
!	!	!	!	!	!	!	!	!	!	!	!	!	!	!	!	!	!	!	!	!	!LO:TUP:problem:brak klamry	!
*	*	*	*	*	*	*	*	*	*	*	*	*	*	*	*	*	*	*	*	*	*Xtuplet	*
8r	.	8ryy	.	.	.	.	8r	.	8r	.	8r	.	8cc#/	8cc#\	.	8G#\ 8B	.	(>24g#/LL	8e#X\	.	24gg#\LL	.
.	.	.	.	.	.	.	.	.	.	.	.	.	.	.	.	.	.	24a/	.	.	24aa\	.
.	.	.	.	.	.	.	.	.	.	.	.	.	.	.	.	.	.	24b/JJ	.	.	24bb\JJ	.
=4	=4	=4	=4	=4	=4	=4	=4	=4	=4	=4	=4	=4	=4	=4	=4	=4	=4	=4	=4	=4	=4	=4
4r	.	4ryy	.	2r	.	.	4r	.	4r	.	4r	.	4.cc#X/	4.cc#\	.	4.F#\ 4.A	.	4.a/)	4.f#\	.	4.aa\	.
8r	.	8ryy	.	.	.	.	8r	.	8r	.	8r	.	.	.	.	.	.	.	.	.	.	.
8D\	.	8D\yy	.	.	.	.	8Fn/	.	8B/	.	8fn/	.	8r	8ryy	.	8r	.	(8fX/	8r	.	(8ffn\	.
*	*	*	*	*	*	*	*	*	*	*	*	*	*v	*v	*	*	*	*	*	*	*	*
!!LO:LB:g=original
=5	=5	=5	=5	=5	=5	=5	=5	=5	=5	=5	=5	=5	=5	=5	=5	=5	=5	=5	=5	=5	=5
*2\right	*	*2\right	*	*	*	*	*	*	*	*	*	*	*	*	*2\right	*	*	*	*	*	*
!	!LO:DY:rj	!LO:TX:t=//	!LO:DY:rj	!	!	!	!	!	!	!LO:DY:rj	!	!	!	!	!	!	!	!	!	!	!
[2E\	p	[yy2E\yy	py	2r	.	.	[2A/	.	[2c#/	p	8e/L	.	[>2e/ [>2ee	.	[>2A\ [>2c#	.	8e/L)	2r	.	8ee\L)	.
.	.	.	.	.	.	.	.	.	.	.	(16g#/L	.	.	.	.	.	(16g#/L	.	.	(16gg#\L	.
.	.	.	.	.	.	.	.	.	.	.	16a/JJ)	.	.	.	.	.	16a/JJ)	.	.	16aa\JJ)	.
.	.	.	.	.	.	.	.	.	.	.	[4cc#\	.	.	.	.	.	[4cc#/	.	.	[4ccc#\	.
=6	=6	=6	=6	=6	=6	=6	=6	=6	=6	=6	=6	=6	=6	=6	=6	=6	=6	=6	=6	=6	=6
2E\]	.	2E\]yy	.	2r	.	.	2A/]	.	2c#/]	.	(16cc#\LL]	.	2e/] 2ee]	.	2A\] 2c#]	.	16cc#/LL]	2r	.	16ccc#\LL]	.
.	.	.	.	.	.	.	.	.	.	.	16g#\	.	.	.	.	.	(16g#/	.	.	(16gg#\	.
.	.	.	.	.	.	.	.	.	.	.	16a\	.	.	.	.	.	16a/	.	.	16aa\	.
.	.	.	.	.	.	.	.	.	.	.	16ff#\JJ)	.	.	.	.	.	16ff#/JJ	.	.	16fff#\JJ	.
.	.	.	.	.	.	.	.	.	.	.	4ee\	.	.	.	.	.	4ee/)	.	.	4eee\)	.
=7	=7	=7	=7	=7	=7	=7	=7	=7	=7	=7	=7	=7	=7	=7	=7	=7	=7	=7	=7	=7	=7
4r	.	4ryy	.	2r	.	.	4r	.	4r	.	(8ee\L	.	4r	.	4r	.	(8ee/L	4r	.	(8eee\L	.
.	.	.	.	.	.	.	.	.	.	.	8dd#X\)	.	.	.	.	.	8dd#X/)	.	.	8ddd#X\)	.
4E\	.	4E\yy	.	.	.	.	4d\ 4e	.	4B/ 4g#	.	(8ddn\	.	4e/ 4ee	.	4G#\ 4d	.	(8dd/	4g#\	.	(8dddn\	.
.	.	.	.	.	.	.	.	.	.	.	8b\J)	.	.	.	.	.	8b/J)	.	.	8bb\J)	.
=8	=8	=8	=8	=8	=8	=8	=8	=8	=8	=8	=8	=8	=8	=8	=8	=8	=8	=8	=8	=8	=8
!	!LO:DY:rj	!	!LO:DY:rj	!	!	!	!	!LO:DY:rj	!	!	!	!LO:DY:rj	!	!	!	!	!	!	!	!	!
4E\	f	4E\yy	fy	2r;	.	.	4d\ 4e	f	4B/ 4g#	.	4g#/	f	4e/ 4ee	.	4B\ 4d	.	4g#/	4g#\	.	4gg#\	.
4r;	.	4r;yy	.	.	.	.	4r;	.	4r;	.	4r;	.	4r;	.	4r;	.	4r;	4ryy	.	4r;	.
*	*	*	*	*	*	*	*	*	*	*	*	*	*	*	*	*	*v	*v	*	*	*
!!LO:PB:g=original
=9||	=9||	=9||	=9||	=9||	=9||	=9||	=9||	=9||	=9||	=9||	=9||	=9||	=9||	=9||	=9||	=9||	=9||	=9||	=9||	=9||
!	!	!LO:TX:t=P:problem:mixed beam	!	!LO:TX:a:t=dolce	!	!	!	!	!	!	!LO:TX:a:i:t=dolce	!	!	!	!	!	!	!	!	!
!	!	!	!LO:DY:rj	!	!	!	!	!	!	!	!	!LO:DY:rj	!	!	!	!	!	!	!	!
8AA/	.	8AA'/L	p	4cc#\	„Kwia-	.	[2A/	.	(4e/	.	(4cc#\	p	2r	.	2r	.	2r	.	2r	.
8r	.	(8E\	.	.	.	.	.	.	.	.	.	.	.	.	.	.	.	.	.	.
4r	.	8A\	.	8b#X\	-tki	.	.	.	8d#X/L	.	8b#X\L	.	.	.	.	.	.	.	.	.
.	.	8E\J)	.	8cc#\	kwia-	.	.	.	8e/J)	.	8cc#\J)	.	.	.	.	.	.	.	.	.
=10	=10	=10	=10	=10	=10	=10	=10	=10	=10	=10	=10	=10	=10	=10	=10	=10	=10	=10	=10	=10
*	*	*	*	*	*	*	*	*	*	*	*	*	*	*	*	*	*^	*	*	*
*	*	*rep	*	*	*	*	*	*	*	*	*	*	*	*	*	*	*	*	*	*	*
!	!	!LO:TX:t=P:problem:mixed beam	!	!	!	!	!	!	!	!	!	!	!	!	!	!	!	!	!	!	!
8A\	.	8AA'/L	.	4a/	-te-	.	4.A/]	.	4.c#/	.	(4a/	.	2r	.	2r	.	(4a/	2r	.	(4aa\	p
8r	.	(8E\	.	.	.	.	.	.	.	.	.	.	.	.	.	.	.	.	.	.	.
4r	.	8A\	.	8e/	-czki,	.	.	.	.	.	8e/)	.	.	.	.	.	8e/)	.	.	8ee\)	.
.	.	8E\J)	.	8r	.	.	8r	.	8r	.	8r	.	.	.	.	.	8r	.	.	8r	.
*	*	*Xrep	*	*	*	*	*	*	*	*	*	*	*	*	*	*	*	*	*	*	*
*	*	*	*	*	*	*	*	*	*	*	*	*	*	*	*	*	*v	*v	*	*	*
=11	=11	=11	=11	=11	=11	=11	=11	=11	=11	=11	=11	=11	=11	=11	=11	=11	=11	=11	=11	=11
8E\	.	8EE'/L	.	4dd\	ła-	.	(2G#/	.	(4b/	.	(4dd\	.	2r	.	2r	.	2r	.	2r	.
8r	.	(8BB/	.	.	.	.	.	.	.	.	.	.	.	.	.	.	.	.	.	.
4r	.	8E/	.	8cc#\	-dne	.	.	.	8a#X/L	.	8cc#\L	.	.	.	.	.	.	.	.	.
.	.	8BB/J)	.	8dd\	pach-	.	.	.	8b/J)	.	8dd\J)	.	.	.	.	.	.	.	.	.
=12	=12	=12	=12	=12	=12	=12	=12	=12	=12	=12	=12	=12	=12	=12	=12	=12	=12	=12	=12	=12
*	*	*rep	*	*	*	*	*	*	*	*	*	*	*	*	*	*	*	*	*	*
8E\	.	8EE'/L	.	4b/	-nią-	.	4.e\)	.	(4g#/	.	(4b/	.	2r	.	2r	.	(4b/	.	(4bb\	.
8r	.	(8BB/	.	.	.	.	.	.	.	.	.	.	.	.	.	.	.	.	.	.
4r	.	8E/	.	8e/	-ce.„	.	.	.	8e/)	.	8e/)	.	.	.	.	.	8e/)	.	8ee\)	.
.	.	8BB/J)	.	8r	.	.	8r	.	8r	.	8r	.	.	.	.	.	8r	.	8r	.
*	*	*Xrep	*	*	*	*	*	*	*	*	*	*	*	*	*	*	*	*	*	*
=13	=13	=13	=13	=13	=13	=13	=13	=13	=13	=13	=13	=13	=13	=13	=13	=13	=13	=13	=13	=13
8AA/	.	8AA'\L	.	8cc#\	Swie-	.	(4e\	.	8a/	.	8cc#\	.	2r	.	2r	.	2r	.	2r	.
8r	.	(8A\	.	4cc#^\	-żo	.	.	.	4a/	.	4cc#^\	.	.	.	.	.	.	.	.	.
(8F#\L	.	8F#\	.	.	.	.	4f#\	.	.	.	.	.	.	.	.	.	.	.	.	.
8BB\J)	.	8BB\J)	.	8dd#X\	co	.	.	.	8a/	.	8dd#X\	.	.	.	.	.	.	.	.	.
=14	=14	=14	=14	=14	=14	=14	=14	=14	=14	=14	=14	=14	=14	=14	=14	=14	=14	=14	=14	=14
8C#/	.	8C#'\L	.	4ee\	rwa-	.	4.e\)	.	(4g#/	.	(4ee\	.	2r	.	2r	.	2r	.	2r	.
8r	.	(8c#\	.	.	.	.	.	.	.	.	.	.	.	.	.	.	.	.	.	.
(8A\L	.	8A\	.	8cc#\	-ne	.	.	.	8a/L)	.	8cc#\L)	.	.	.	.	.	.	.	.	.
8F#\J)	.	8F#\J)	.	8cc#'\	na	.	8f#\	.	8a'/J	.	8cc#'\J	.	.	.	.	.	.	.	.	.
!!LO:LB:g=original
=15	=15	=15	=15	=15	=15	=15	=15	=15	=15	=15	=15	=15	=15	=15	=15	=15	=15	=15	=15	=15
*	*	*	*	*2\right	*	*	*	*	*	*	*	*	*	*	*	*	*	*	*	*
!	!	!LO:TX:t=P:problem:mixed beam	!	!	!	!	!	!	!	!	!	!	!	!	!	!	!	!	!	!
8B\	.	(8B\L	.	2b\	łą-	.	(4e\	.	(8g#/L	.	(8g#/L	.	2r	.	2r	.	2r	.	2r	.
8r	.	8BB/J)	.	.	.	.	.	.	8e/J)	.	8e/J)	.	.	.	.	.	.	.	.	.
!	!	!LO:TX:t=P:problem:mixed beam	!	!	!	!	!	!	!	!	!	!	!	!	!	!	!	!	!	!
8BB/	.	(8B\L	.	.	.	.	4B/	.	(8e/L	.	(8f#/L	.	.	.	.	.	.	.	.	.
8r	.	8BB/J)	.	.	.	.	.	.	8d#X/J)	.	8b/J)	.	.	.	.	.	.	.	.	.
=16	=16	=16	=16	=16	=16	=16	=16	=16	=16	=16	=16	=16	=16	=16	=16	=16	=16	=16	=16	=16
*	*	*	*	*	*	*	*	*	*	*	*	*	*	*	*	*	*^	*	*	*
8E\	.	8E\	.	8e/	-ce	.	8e\)	.	8e/	.	8e/	.	2r	.	2r	.	8r	2re	.	8r	.
!	!	!	!	!	!	!	!	!	!	!	!	!LO:DY:rj	!	!	!	!	!	!	!	!	!
8r	.	8r	.	8r	.	.	8r	.	8r	.	(16e/LL	f	.	.	.	.	(16e/LL	.	.	(16ee\LL	pf
.	.	.	.	.	.	.	.	.	.	.	16f#/JJ	.	.	.	.	.	16f#/JJ	.	.	16ff#\JJ	.
4r	.	4r	.	4r	.	.	4r	.	4r	.	16g#/LL	.	.	.	.	.	16g#/LL	.	.	16gg#\LL	.
.	.	.	.	.	.	.	.	.	.	.	16a/	.	.	.	.	.	16a/	.	.	16aa\	.
.	.	.	.	.	.	.	.	.	.	.	16b/	.	.	.	.	.	16b/	.	.	16bb\	.
.	.	.	.	.	.	.	.	.	.	.	16cc#/JJ)	.	.	.	.	.	16cc#/JJ)	.	.	16ccc#\JJ)	.
=17	=17	=17	=17	=17	=17	=17	=17	=17	=17	=17	=17	=17	=17	=17	=17	=17	=17	=17	=17	=17	=17
!	!	!LO:TX:t=//	!	!	!	!	!	!	!	!	!	!	!	!LO:DY:a	!	!	!	!	!	!	!
8E\	.	8E\yy	.	4dd\	„Kup-	.	8r	.	8r	.	8dd\	.	[2e/ [2ee	p	2r	.	(8.dd/L	2r	.	(8.ddd\L	p
!	!	!	!	!	!	!	!	!	!	!	!	!LO:DY:rj	!	!	!	!	!	!	!	!	!
8r	.	8ryy	.	.	.	.	8B/	.	8d/ 8e	.	8g#/	p	.	.	.	.	.	.	.	.	.
.	.	.	.	.	.	.	.	.	.	.	.	.	.	.	.	.	32ee/LL	.	.	32eee\LL	.
.	.	.	.	.	.	.	.	.	.	.	.	.	.	.	.	.	32dd/JJJ	.	.	32ddd\JJJ	.
8E\	.	8E\yy	.	8cc#\	-cie	.	8r	.	8r	.	8r	.	.	.	.	.	8cc#/L)	.	.	8ccc#\L)	.
8r	.	8ryy	.	8dd\	ie	.	8B/	.	8d/ 8e	.	8g#/	.	.	.	.	.	8dd'/J	.	.	8ddd\J	.
=18	=18	=18	=18	=18	=18	=18	=18	=18	=18	=18	=18	=18	=18	=18	=18	=18	=18	=18	=18	=18	=18
8E\	.	8E\yy	.	4b/	kup-	.	8r	.	8r	.	8r	.	2e/] 2ee]	.	2r	.	4b/	2r	.	4bb\	.
8r	.	8ryy	.	.	.	.	8B/	.	8d/ 8e	.	8g#/	.	.	.	.	.	.	.	.	.	.
8E\	.	8E\yy	.	4e/	-cie	.	8r	.	8r	.	8r	.	.	.	.	.	4e/	.	.	4ee\	.
8r	.	8ryy	.	.	.	.	8B/	.	8d/ 8e	.	8g#/	.	.	.	.	.	.	.	.	.	.
=19	=19	=19	=19	=19	=19	=19	=19	=19	=19	=19	=19	=19	=19	=19	=19	=19	=19	=19	=19	=19	=19
8BB/	.	8BB/yy	.	4cc#\	Pa-	.	8r	.	8r	.	8r	.	2r	.	2r	.	(4cc#/	2r	.	(4ccc#\	.
8r	.	8ryy	.	.	.	.	8A/	.	8c#/ 8e	.	8a/	.	.	.	.	.	.	.	.	.	.
8A\	.	8A\yy	.	8a\	-no-	.	8r	.	8r	.	8r	.	.	.	.	.	8a/L)	.	.	8aa\L)	.
8r	.	8ryy	.	8ff#\	-wie,	.	8B#X/	.	8d#X^/ 8f#	.	8a^/	.	.	.	.	.	8ff#/J	.	.	8fff#'\J	.
=20	=20	=20	=20	=20	=20	=20	=20	=20	=20	=20	=20	=20	=20	=20	=20	=20	=20	=20	=20	=20	=20
8AA/	.	8AA/yy	.	4ee\	Pa-	.	8r	.	8r	.	8r	.	2r	.	2r	.	(4ee/	2r	.	(4eee\	.
8r	.	8ryy	.	.	.	.	8A/	.	8c#/ 8e	.	8a/	.	.	.	.	.	.	.	.	.	.
8AA/	.	8AA/yy	.	8cc#\	-nie!	.	8r	.	8r	.	8r	.	.	.	.	.	8cc#/)	.	.	8ccc#\)	.
8r	.	8ryy	.	8cc#\	Kwia-	.	8A/	.	8c#/ 8e	.	8a/	.	.	.	.	.	8r	.	.	8r	.
*	*	*	*	*	*	*	*	*	*	*	*	*	*	*	*	*	*v	*v	*	*	*
!!LO:PB:g=original
=21	=21	=21	=21	=21	=21	=21	=21	=21	=21	=21	=21	=21	=21	=21	=21	=21	=21	=21	=21	=21
8BB/	.	8BB/yy	.	4b\	-tecz-	.	8r	.	8r	.	8r	.	2r	.	2r	.	2r	.	2r	.
8r	.	8ryy	.	.	.	.	8B/	.	8B/ 8e	.	8g#/	.	.	.	.	.	.	.	.	.
8BB#X/	.	8BB#X/yy	.	4dd#X\	-ki	.	8r	.	8r	.	8r	.	.	.	.	.	.	.	.	.
8r	.	8ryy	.	.	.	.	8f#\	.	8a/	.	8dd#X\	.	.	.	.	.	.	.	.	.
=22	=22	=22	=22	=22	=22	=22	=22	=22	=22	=22	=22	=22	=22	=22	=22	=22	=22	=22	=22	=22
8C#/	.	8C#/yy	.	4ee\	ta-	.	8r	.	8r	.	8r	.	2ryy	.	2ryy	.	2ryy	.	2ryy	.
8r	.	8ryy	.	.	.	.	8e\	.	8f#/	.	8ee\	.	.	.	.	.	.	.	.	.
8AA/	.	8AA/yy	.	8cc#\	-nie	.	8r	.	8r	.	8r	.	.	.	.	.	.	.	.	.
8r	.	8ryy	.	8cc#\	Kwia-	.	8e\	.	8a/	.	8cc#\	.	.	.	.	.	.	.	.	.
=23	=23	=23	=23	=23	=23	=23	=23	=23	=23	=23	=23	=23	=23	=23	=23	=23	=23	=23	=23	=23
8BB/	.	8BB/yy	.	8cc#\	-tecz-	.	8r	.	8r	.	8r	.	2ryy	.	2ryy	.	2ryy	.	2ryy	.
8r	.	8ryy	.	8b\	-ki	.	8e\	.	8g#/	.	8b\	.	.	.	.	.	.	.	.	.
8BB/	.	8BB/yy	.	4b\	ta-	.	8r	.	8r	.	8r	.	.	.	.	.	.	.	.	.
8r	.	8ryy	.	.	.	.	8f#\	.	8d#X/	.	8b\	.	.	.	.	.	.	.	.	.
=24	=24	=24	=24	=24	=24	=24	=24	=24	=24	=24	=24	=24	=24	=24	=24	=24	=24	=24	=24	=24
8E\	.	8E\yy	.	8e/	-nie	.	8e\	.	8e/	.	8e/	.	2ryy	.	2ryy	.	2ryy	.	2ryy	.
8r	.	8ryy	.	8r	.	.	8r	.	8r	.	8r	.	.	.	.	.	.	.	.	.
4r	.	(4e\	.	4r	.	.	(4e\	.	(4ee\	.	(4ee\	.	.	.	.	.	.	.	.	.
=25	=25	=25	=25	=25	=25	=25	=25	=25	=25	=25	=25	=25	=25	=25	=25	=25	=25	=25	=25	=25
!	!	!	!	!	!	!	!	!	!LO:TX:t=Unis	!	!	!	!	!	!	!	!	!	!	!
2r	.	8d\L)	.	2r	.	.	8d/L)	.	8ffn\L)yy	.	8ffn\L)	.	2ryy	.	2ryy	.	2ryy	.	2ryy	.
.	.	(8B\	.	.	.	.	(8B/	.	(8dd\yy	.	(8dd\	.	.	.	.	.	.	.	.	.
.	.	8cn\)	.	.	.	.	8cn/)	.	8ee\)yy	.	8ee\)	.	.	.	.	.	.	.	.	.
.	.	(8A\J	.	.	.	.	(8A/J	.	(8ccn\Jyy	.	(8ccn\J	.	.	.	.	.	.	.	.	.
=26	=26	=26	=26	=26	=26	=26	=26	=26	=26	=26	=26	=26	=26	=26	=26	=26	=26	=26	=26	=26
2r	.	8B\L)	.	4r	.	.	8B/L)	.	8dd\L)yy	.	8dd\L)	.	2ryy	.	2ryy	.	2ryy	.	2ryy	.
.	.	(8G#\	.	.	.	.	(8G#/	.	8b\yy	.	(8b\	.	.	.	.	.	.	.	.	.
.	.	8A\	.	(8ccn\L	Tak	.	8A/	.	8ccn\yy	.	8ccn\	.	.	.	.	.	.	.	.	.
.	.	8Gn\J	.	8b\J	.	.	8Gn/J)	.	8b\Jyy	.	8b\J	.	.	.	.	.	.	.	.	.
=27	=27	=27	=27	=27	=27	=27	=27	=27	=27	=27	=27	=27	=27	=27	=27	=27	=27	=27	=27	=27
*	*	*	*	*	*	*	*	*	*	*	*	*	*	*	*	*	*^	*	*	*
2r	.	4Fn\)	.	4a/)	wo-	.	4Fn/	.	4a/	.	4a/)	.	2r	.	4r	p	4r	4ryy	p	2r	.
.	.	4r	.	4a/	-ła	.	4r	.	4r	.	4r	.	.	.	[4Fn\ [4cn	.	[4a/	[4a\	.	.	.
!!LO:LB:g=original
=28	=28	=28	=28	=28	=28	=28	=28	=28	=28	=28	=28	=28	=28	=28	=28	=28	=28	=28	=28	=28	=28
*	*	*	*	*	*	*	*	*	*	*	*	*	*	*	*	*	*	*2\right	*	*	*
!	!	!LO:TX:t=//	!	!	!	!	!	!	!	!	!	!	!	!	!	!	!	!	!	!	!
!	!	!	!	!	!	!	!	!	!	!	!	!	!	!	!LO:TX:t=P:problem:brak zakończenia ligatur	!	!	!	!	!	!
4Fn\	.	4Fn\yy	.	4.ccn\	dziew-	.	4r	.	4r	.	4r	.	4r	.	2Fn\] 2cn]	.	2a/]	2a\]	.	2r	.
!	!	!	!	!	!	!	!	!	!	!	!	!LO:DY:rj	!	!LO:DY:rj	!	!	!	!	!	!	!
4r	.	4ryy	.	.	.	.	4fn\	.	4cn/	.	4a/	p	4cc\ 4ff	p	.	.	.	.	.	.	.
.	.	.	.	8a/	-cze	.	.	.	.	.	.	.	.	.	.	.	.	.	.	.	.
=29	=29	=29	=29	=29	=29	=29	=29	=29	=29	=29	=29	=29	=29	=29	=29	=29	=29	=29	=29	=29	=29
2r	.	2ryy	.	(8.a/L	ni-	.	2r	.	2r	.	2r	.	2r	.	[>2E\ [>2cn	.	[2a/	[2a\	.	2r	.
.	.	.	.	32b/LL	.	.	.	.	.	.	.	.	.	.	.	.	.	.	.	.	.
.	.	.	.	32a/JJJ)	.	.	.	.	.	.	.	.	.	.	.	.	.	.	.	.	.
.	.	.	.	8g#/	-by	.	.	.	.	.	.	.	.	.	.	.	.	.	.	.	.
.	.	.	.	8a/	o-	.	.	.	.	.	.	.	.	.	.	.	.	.	.	.	.
=30	=30	=30	=30	=30	=30	=30	=30	=30	=30	=30	=30	=30	=30	=30	=30	=30	=30	=30	=30	=30	=30
*	*	*	*	*	*	*	*	*	*	*	*	*	*^	*	*	*	*	*	*	*	*
4E\	.	4E\yy	.	4.ccn\	-cho-	.	4r	.	4r	.	4r	.	4r	4ryy	.	2E\] 2c]	.	2a/]	2a\]	.	2r	.
4r	.	4ryy	.	.	.	.	4e\	.	4cn/	.	4a/	.	4ee/	4cc\	.	.	.	.	.	.	.	.
.	.	.	.	8a/	-cze	.	.	.	.	.	.	.	.	.	.	.	.	.	.	.	.	.
*	*	*	*	*	*	*	*	*	*	*	*	*	*v	*v	*	*	*	*	*	*	*	*
=31	=31	=31	=31	=31	=31	=31	=31	=31	=31	=31	=31	=31	=31	=31	=31	=31	=31	=31	=31	=31	=31
2r	.	2ryy	.	4a/	Łza	.	2r	.	2r	.	2r	.	2r	.	[2D#X\ [2cn	.	[2a/	[2f#\	.	2r	.
.	.	.	.	8g#/	ied-	.	.	.	.	.	.	.	.	.	.	.	.	.	.	.	.
.	.	.	.	8a/	-nak	.	.	.	.	.	.	.	.	.	.	.	.	.	.	.	.
=32	=32	=32	=32	=32	=32	=32	=32	=32	=32	=32	=32	=32	=32	=32	=32	=32	=32	=32	=32	=32	=32
4D#X\	.	4D#X\yy	.	4.f#/	rzew-	.	4r	.	4r	.	4r	.	4r	.	2D#\_ 2c_	.	2a/_	2f#\_	.	2r	.
4r	.	4ryy	.	.	.	.	4cn\	.	4f#/	.	4a/	.	4cc\ 4ff#X	.	.	.	.	.	.	.	.
.	.	.	.	8a/	-na	.	.	.	.	.	.	.	.	.	.	.	.	.	.	.	.
=33	=33	=33	=33	=33	=33	=33	=33	=33	=33	=33	=33	=33	=33	=33	=33	=33	=33	=33	=33	=33	=33
2r	.	2ryy	.	(8.ccn\L	w_o-	.	2r	.	2r	.	2r	.	2r	.	2D#\] 2c]	.	2a/]	2f#\]	.	2r	.
.	.	.	.	32dd\LL	.	.	.	.	.	.	.	.	.	.	.	.	.	.	.	.	.
.	.	.	.	32cc\JJJ)	.	.	.	.	.	.	.	.	.	.	.	.	.	.	.	.	.
.	.	.	.	8b\	-ku	.	.	.	.	.	.	.	.	.	.	.	.	.	.	.	.
.	.	.	.	8a/	mi-	.	.	.	.	.	.	.	.	.	.	.	.	.	.	.	.
*	*	*	*	*	*	*	*	*	*	*	*	*	*	*	*	*	*v	*v	*	*	*
=34	=34	=34	=34	=34	=34	=34	=34	=34	=34	=34	=34	=34	=34	=34	=34	=34	=34	=34	=34	=34
4r	.	4ryy	.	(>8.g#/L	-go-	.	4r	.	4r	.	4r	.	4r	.	2E;\ 2B	.	2e;/ 2g#	.	2r;	.
.	.	.	.	16e/Jk) 16ee	.	.	.	.	.	.	.	.	.	.	.	.	.	.	.	.
4E;\	.	4E;\yy	.	4e;/ 4ee	-cze.	.	4B;/	.	4e;/	.	4g#;/	.	4e;/ 4ee	.	.	.	.	.	.	.
!!LO:PB:g=original
=35||	=35||	=35||	=35||	=35||	=35||	=35||	=35||	=35||	=35||	=35||	=35||	=35||	=35||	=35||	=35||	=35||	=35||	=35||	=35||	=35||
*k[]	*	*k[]	*	*k[]	*	*	*k[]	*	*k[]	*	*k[]	*	*k[]	*	*k[]	*	*k[]	*	*k[]	*
*	*	*	*	*	*	*	*	*	*	*	*	*	*	*	*	*	*^	*	*	*
!	!	!	!LO:DY:rj	!	!	!	!	!LO:DY:rj	!	!	!	!LO:DY:rj	!	!LO:DY:rj	!	!LO:DY:rj	!	!	!	!	!
!	!	!	!	!	!	!	!	!	!	!	!	!	!LO:TX:t=P:problem:brak znaków przy kluczu	!	!	!	!	!	!	!	!
2C/	.	8C'\L	f	2r	.	.	2C/ 2c	f	4g/	.	4ee\	f	[2c/ [2cc	f	8C'\L	f	4ee/	4g\	.	4eee\	f
.	.	(8G\	.	.	.	.	.	.	.	.	.	.	.	.	(8G\	.	.	.	.	.	.
.	.	8c\	.	.	.	.	.	.	(8g/L	.	(8ee\L	.	.	.	8c\	.	8ee/L	8g\L	.	(8eee\L	.
.	.	8G\J)	.	.	.	.	.	.	8f/J)	.	8dd\J)	.	.	.	8G\J)	.	8dd/J	8f\J	.	8ddd\J)	.
=36	=36	=36	=36	=36	=36	=36	=36	=36	=36	=36	=36	=36	=36	=36	=36	=36	=36	=36	=36	=36	=36
*	*	*rep	*	*	*	*	*	*	*	*	*	*	*	*	*	*	*	*	*	*	*
2C/	.	8C'\L	.	2r	.	.	2C/ 2c	.	4e/	.	4cc\	.	2c/] 2cc]	.	8C'\L	.	4cc/	2e\	.	4ccc\	.
.	.	(8G\	.	.	.	.	.	.	.	.	.	.	.	.	(8G\	.	.	.	.	.	.
.	.	8c\	.	.	.	.	.	.	4e/	.	4g/	.	.	.	8c\	.	4g/	.	.	4gg\	.
.	.	8G\J)	.	.	.	.	.	.	.	.	.	.	.	.	8G\J)	.	.	.	.	.	.
*	*	*Xrep	*	*	*	*	*	*	*	*	*	*	*	*	*	*	*	*	*	*	*
=37	=37	=37	=37	=37	=37	=37	=37	=37	=37	=37	=37	=37	=37	=37	=37	=37	=37	=37	=37	=37	=37
2C/	.	8C'\L	.	2r	.	.	4C/ 4c	.	4f/	.	4a/	.	[2c/ [2cc	.	8C'\L	.	4a/	4f\	.	4aa\	.
.	.	(8F\	.	.	.	.	.	.	.	.	.	.	.	.	(8F\	.	.	.	.	.	.
.	.	8G\	.	.	.	.	4C/ 4d	.	(>[4G/ 4f	.	(4b/	.	.	.	8G\	.	4bt/	4f\	.	4bbt\	.
.	.	8d\J)	.	.	.	.	.	.	.	.	.	.	.	.	8d\J)	.	.	.	.	.	.
.	.	.	.	.	.	.	.	.	.	.	16qqa/LL)	.	.	.	.	.	(>16qqa/LL	.	.	(16qqaa/LL	.
.	.	.	.	.	.	.	.	.	.	.	16qqb/JJ	.	.	.	.	.	16qqb/JJ)	.	.	16qqbb/JJ)	.
=38	=38	=38	=38	=38	=38	=38	=38	=38	=38	=38	=38	=38	=38	=38	=38	=38	=38	=38	=38	=38	=38
2C/	.	8C'\L	.	2r	.	.	4C/ 4c	.	4G/]) 4e	.	(8dd\L	.	2c/] 2cc]	.	8C'\L	.	8dd/L	2e\	.	(8ddd\L	.
.	.	(8G\	.	.	.	.	.	.	.	.	8cc\J)	.	.	.	(8G\	.	8cc/J	.	.	8ccc\J)	.
.	.	8c\	.	.	.	.	4C/ 4c	.	4G/ 4e	.	4g/	.	.	.	8c\	.	4g/	.	.	4gg\	.
.	.	8G\J)	.	.	.	.	.	.	.	.	.	.	.	.	8G\J)	.	.	.	.	.	.
*	*	*	*	*	*	*	*	*	*	*	*	*	*	*	*	*	*v	*v	*	*	*
=39	=39	=39	=39	=39	=39	=39	=39	=39	=39	=39	=39	=39	=39	=39	=39	=39	=39	=39	=39	=39
!	!	!	!	!	!	!	!	!LO:DY:rj	!	!	!	!	!	!	!	!	!	!	!	!
4C/	p	4C/	p	8ee\	Łza	.	4c\	p	8r	.	8r	.	2r	.	2r	.	2r	.	2r	.
!	!	!	!	!	!	!	!	!	!	!	!	!LO:DY:rj	!	!	!	!	!	!	!	!
.	.	.	.	4ee\	ser-	.	.	.	8g'/L	.	8ee'\L	p	.	.	.	.	.	.	.	.
4r	.	4r	.	.	.	.	4r	.	(8g/	.	(8ee\	.	.	.	.	.	.	.	.	.
.	.	.	.	8dd\	-de-	.	.	.	8f/J)	.	8dd\J)	.	.	.	.	.	.	.	.	.
=40	=40	=40	=40	=40	=40	=40	=40	=40	=40	=40	=40	=40	=40	=40	=40	=40	=40	=40	=40	=40
!	!	!LO:TX:t=//	!	!	!	!	!	!	!	!	!	!	!	!	!	!	!	!	!	!
8C/	.	8C/yy	.	4cc\	-czne-	.	8c\	.	8r	.	8r	.	2r	.	2r	.	2r	.	2r	.
8r	.	8ryy	.	.	.	.	8r	.	8e/	.	8cc\	.	.	.	.	.	.	.	.	.
8C/	.	8C/yy	.	4g/	-go	.	8c\	.	8r	.	8r	.	.	.	.	.	.	.	.	.
8r	.	8ryy	.	.	.	.	8r	.	8e/	.	8g/	.	.	.	.	.	.	.	.	.
=41	=41	=41	=41	=41	=41	=41	=41	=41	=41	=41	=41	=41	=41	=41	=41	=41	=41	=41	=41	=41
8C/	.	8C/yy	.	(8a-X\L	ża-	.	8r	.	8r	.	8r	.	2r	.	2r	.	2r	.	2r	.
8r	.	8ryy	.	8dd\J)	.	.	8f\	.	8a-X/	.	8dd\	.	.	.	.	.	.	.	.	.
8C/	.	8C/yy	.	8cc\	-lu	.	8r	.	8r	.	8r	.	.	.	.	.	.	.	.	.
8r	.	8ryy	.	8b\	roz-	.	8f\	.	8g/	.	8b\	.	.	.	.	.	.	.	.	.
!!LO:LB:g=original
=42	=42	=42	=42	=42	=42	=42	=42	=42	=42	=42	=42	=42	=42	=42	=42	=42	=42	=42	=42	=42
8C/	.	8C/yy	.	4cc\	-pa-	.	8r	.	8r	.	8r	.	2r	.	2r	.	2r	.	2r	.
8r	.	8ryy	.	.	.	.	8g\	.	8e/	.	8cc\	.	.	.	.	.	.	.	.	.
8C/	.	8C/yy	.	8g/	-czy,	.	8r	.	8r	.	8r	.	.	.	.	.	.	.	.	.
8r	.	8ryy	.	8g/	Cóż	.	8c\	.	8e/	.	8g/	.	.	.	.	.	.	.	.	.
=43	=43	=43	=43	=43	=43	=43	=43	=43	=43	=43	=43	=43	=43	=43	=43	=43	=43	=43	=43	=43
*	*	*	*	*	*	*	*	*	*	*	*	*	*	*	*^	*	*	*	*	*
!	!	!	!	!	!	!	!	!	!	!	!	!	!	!	!LO:TX:a:t=2o.	!	!	!	!	!	!
!	!	!	!	!	!	!	!	!	!	!	!	!	!	!LO:DY:rj	!	!	!LO:DY:rj	!	!LO:DY:rj	!	!
8E\	.	8E\yyy	.	4g#X/	o-	.	8e\	.	16r	.	8g#X/	.	[2e/ [2ee	p	2r	4E\	p	2B/ 2g#	p	2r	.
.	.	.	.	.	.	.	.	.	(16e/LL	.	.	.	.	.	.	.	.	.	.	.	.
8r	.	8ryy	.	.	.	.	8r	.	16d#X/	.	8r	.	.	.	.	.	.	.	.	.	.
.	.	.	.	.	.	.	.	.	16e/JJ)	.	.	.	.	.	.	.	.	.	.	.	.
8D\	.	8D\yy	.	4e/	-na	.	8d\	.	16r	.	8g#/	.	.	.	.	4D\	.	.	.	.	.
.	.	.	.	.	.	.	.	.	(16e/LL	.	.	.	.	.	.	.	.	.	.	.	.
8r	.	8ryy	.	.	.	.	8r	.	16d#/	.	8r	.	.	.	.	.	.	.	.	.	.
.	.	.	.	.	.	.	.	.	16e/JJ)	.	.	.	.	.	.	.	.	.	.	.	.
=44	=44	=44	=44	=44	=44	=44	=44	=44	=44	=44	=44	=44	=44	=44	=44	=44	=44	=44	=44	=44	=44
*	*	*	*	*	*	*	*	*	*	*	*	*	*	*	*	*	*	*^	*	*	*
*	*	*	*	*	*	*	*	*	*rep	*	*	*	*	*	*	*	*	*	*	*	*	*
!	!	!	!	!	!	!	!LO:TX:b:t=cresc&colon; poco a poco:problem:dynamics with extention lines:ext=s	!	!LO:TX:b:t=cresc poco a poco:problem:dynamics with extention lines:ext=s	!	!	!	!	!	!	!	!	!LO:TX:a:t=cresc poco a poco:problem:dynamics with extention lines:ext=s	!	!LO:HP:a:t= cresc poco a poco	!	!
8C/	.	8C/yy	.	4a/	zna-	.	8c\	<	16r	<	8a/	.	2e/_ 2ee_	.	2rA	4C/	.	4a/	4A/	<	2r	.
.	.	.	.	.	.	.	.	.	(16e/LL	.	.	.	.	.	.	.	.	.	.	.	.	.
8r	.	8ryy	.	.	.	.	8r	.	16d#X/	.	8r	.	.	.	.	.	.	.	.	.	.	.
.	.	.	.	.	.	.	.	.	16e/JJ)	.	.	.	.	.	.	.	.	.	.	.	.	.
8AA/	.	8AA/yy	.	8e/	-czy	.	8A/	.	16r	.	8cc\	.	.	.	.	4AA/	.	4cc/	4a\	.	.	.
.	.	.	.	.	.	.	.	.	(16e/LL	.	.	.	.	.	.	.	.	.	.	.	.	.
8r	.	8ryy	.	8cc\	Cóż	.	8r	.	16d#/	.	8r	.	.	.	.	.	.	.	.	.	.	.
.	.	.	.	.	.	.	.	.	16e/JJ)	.	.	.	.	.	.	.	.	.	.	.	.	.
*	*	*	*	*	*	*	*	*	*Xrep	*	*	*	*	*	*	*	*	*	*	*	*	*
=45	=45	=45	=45	=45	=45	=45	=45	=45	=45	=45	=45	=45	=45	=45	=45	=45	=45	=45	=45	=45	=45	=45
*	*	*	*	*	*	*	*	*	*rep	*	*	*	*	*	*	*	*	*	*	*	*	*
8GG#X/	.	8GG#X/yy	.	4b\	o-	.	8G#X/	.	16r	.	8b\	.	2e/] 2ee]	.	2rA	4GG#X/	.	4b/	2b\	.	2r	.
.	.	.	.	.	.	.	.	.	(16e/LL	.	.	.	.	.	.	.	.	.	.	.	.	.
8r	.	8ryy	.	.	.	.	8r	.	16d#X/	.	8r	.	.	.	.	.	.	.	.	.	.	.
.	.	.	.	.	.	.	.	.	16e/JJ)	.	.	.	.	.	.	.	.	.	.	.	.	.
8G#X\	.	8G#X\yy	.	4ee\	-na	.	8g#X\	.	16r	.	8ee\	.	.	.	.	4G#X\	.	4ee/	.	.	.	.
.	.	.	.	.	.	.	.	.	(16e/LL	.	.	.	.	.	.	.	.	.	.	.	.	.
8r	.	8ryy	.	.	.	.	8r	.	16d#/	.	8r	.	.	.	.	.	.	.	.	.	.	.
.	.	.	.	.	.	.	.	.	16e/JJ)	.	.	.	.	.	.	.	.	.	.	.	.	.
*	*	*	*	*	*	*	*	*	*Xrep	*	*	*	*	*	*	*	*	*	*	*	*	*
=46	=46	=46	=46	=46	=46	=46	=46	=46	=46	=46	=46	=46	=46	=46	=46	=46	=46	=46	=46	=46	=46	=46
8A\	.	8A\yy	.	4cc\	zna-	.	8a\	.	16r	.	8cc\	.	4.e/ 4.ee	.	2rA	4.A\	.	4cc/	4a\	.	4r	.
.	.	.	.	.	.	.	.	.	(16a/LL	.	.	.	.	.	.	.	.	.	.	.	.	.
8r	.	8ryy	.	.	.	.	8r	.	16g#X/	.	8r	.	.	.	.	.	.	.	.	.	.	.
.	.	.	.	.	.	.	.	.	16a/JJ)	.	.	.	.	.	.	.	.	.	.	.	.	.
8A\	.	8A\yy	.	8a/	-czy	.	8c\	.	16r	.	8a/	.	.	.	.	.	.	8c/ 8a	4ryy	[	8r	.
.	.	.	.	.	.	.	.	.	(16a/LL	.	.	.	.	.	.	.	.	.	.	.	.	.
8r	.	8ryy	.	8a/	Cóż	.	8r	[[	16g#/	.	8r	.	8r	.	.	8r	.	8a/	.	.	8aa\	.
.	.	.	.	.	.	.	.	.	16a/JJ)	[[	.	.	.	.	.	.	.	.	.	.	.	.
=47	=47	=47	=47	=47	=47	=47	=47	=47	=47	=47	=47	=47	=47	=47	=47	=47	=47	=47	=47	=47	=47	=47
8F\	.	8F\yy	.	4dd\	o-	.	8f\	.	16r	.	8dd\	.	2r	.	2A/	2F\	.	4dd/	2d/	.	4ddd\	.
.	.	.	.	.	.	.	.	.	16a/LL	.	.	.	.	.	.	.	.	.	.	.	.	.
8r	.	8ryy	.	.	.	.	8r	.	16g#X/	.	8r	.	.	.	.	.	.	.	.	.	.	.
.	.	.	.	.	.	.	.	.	16a/JJ	.	.	.	.	.	.	.	.	.	.	.	.	.
8F\	.	8F\yy	.	4a/	-na	.	8f\	.	16r	.	8a/	.	.	.	.	.	.	4a/	.	.	4aa\	.
.	.	.	.	.	.	.	.	.	16a/LL	.	.	.	.	.	.	.	.	.	.	.	.	.
8r	.	8ryy	.	.	.	.	8r	.	16g#/	.	8r	.	.	.	.	.	.	.	.	.	.	.
.	.	.	.	.	.	.	.	.	16a/JJ	.	.	.	.	.	.	.	.	.	.	.	.	.
!!LO:PB:g=original
=48	=48	=48	=48	=48	=48	=48	=48	=48	=48	=48	=48	=48	=48	=48	=48	=48	=48	=48	=48	=48	=48	=48
!	!	!LO:TX:t=//	!	!	!	!	!	!	!	!	!	!	!	!	!	!	!	!	!	!	!	!
8E\	.	8E\yy	.	8g#X/	zna-	.	8e\	.	(16g#X/LL	.	(16g#X/LL	.	2r	.	(4B/	4.E\	.	8g#/	4.d\	.	8gg#X\	.
.	.	.	.	.	.	.	.	.	16e/)	.	16e/)	.	.	.	.	.	.	.	.	.	.	.
8r	.	8ryy	.	4b/	-czy?	.	8r	.	16b'/	.	16b'/	.	.	.	.	.	.	4b/	.	.	4bb\	.
.	.	.	.	.	.	.	.	.	16b'/JJ	.	16b'/JJ	.	.	.	.	.	.	.	.	.	.	.
8E\	.	8E\yy	.	.	.	.	8e\	.	(16b/LL	.	(16b/LL	.	.	.	8G#X/)	.	.	.	.	.	.	.
.	.	.	.	.	.	.	.	.	16g#/)	.	16g#/)	.	.	.	.	.	.	.	.	.	.	.
8r	.	8ryy	.	8r	.	.	8r	.	16e'/	.	16ee'/	.	.	.	8r	8ryy	.	8r	8ryy	.	8r	.
.	.	.	.	.	.	.	.	.	16d'/JJ	.	16g#'/JJ	.	.	.	.	.	.	.	.	.	.	.
=49	=49	=49	=49	=49	=49	=49	=49	=49	=49	=49	=49	=49	=49	=49	=49	=49	=49	=49	=49	=49	=49	=49
!	!	!	!	!	!	!	!	!	!	!	!	!	!	!LO:DY:rj	!	!	!LO:DY:rj	!	!	!	!	!LO:DY:rj
4F\	.	4F\yy	.	2r	.	.	4f\	.	8cn/L	.	8a/L	f	4f/ 4ff	f	4A/	4F\	f	8a/L	4a\	.	8aa\L	f
.	.	.	.	.	.	.	.	.	8a/J	.	16a/L	.	.	.	.	.	.	16a/L	.	.	16aa\L	.
.	.	.	.	.	.	.	.	.	.	.	16b/JJ	.	.	.	.	.	.	16b/JJ	.	.	16bb\JJ	.
8F\L	.	8F\Lyy	.	.	.	.	8f\L	.	8a/L	.	8ccn\L	.	8f/L 8ff	.	8A/L	8F\L	.	8ccX/L	8a\L	.	8cccn\L	.
8F\J	.	8F\Jyy	.	.	.	.	8f\J	.	8a/J	.	8dd\J	.	8f/J 8ff	.	8A/J	8F\J	.	8dd/J	8a\J	.	8ddd\J	.
*	*	*	*	*	*	*	*	*	*	*	*	*	*	*	*v	*v	*	*	*	*	*	*
=50	=50	=50	=50	=50	=50	=50	=50	=50	=50	=50	=50	=50	=50	=50	=50	=50	=50	=50	=50	=50	=50
!	!	!	!	!	!	!	!	!	!	!	!LO:TX:t=P:problem:mixed beam	!	!	!	!	!	!	!	!	!	!
4E\	.	4E\yy	.	2r	.	.	4e\	.	4g#X/	.	8.ee\L	.	4e/ 4ee	.	4E\ 4B	.	4ee/	4g#\	.	8.eee\L	.
.	.	.	.	.	.	.	.	.	.	.	16e/Jk	.	.	.	.	.	.	.	.	16ee\Jk	.
4r	.	4ryy	.	.	.	.	4r	.	4r	.	(16f#X/LL	.	4r	.	4r	.	4r	4ryy	.	(16ff#X\LL	.
.	.	.	.	.	.	.	.	.	.	.	16g#X/	.	.	.	.	.	.	.	.	16gg#X\	.
.	.	.	.	.	.	.	.	.	.	.	16a/	.	.	.	.	.	.	.	.	16aa\	.
.	.	.	.	.	.	.	.	.	.	.	16b/JJ)	.	.	.	.	.	.	.	.	16bb\JJ)	.
*	*	*	*	*	*	*	*	*	*	*	*	*	*	*	*	*	*v	*v	*	*	*
=51||	=51||	=51||	=51||	=51||	=51||	=51||	=51||	=51||	=51||	=51||	=51||	=51||	=51||	=51||	=51||	=51||	=51||	=51||	=51||	=51||
*k[f#c#g#]	*	*k[f#c#g#]	*	*k[f#c#g#]	*	*	*k[f#c#g#]	*	*k[f#c#g#]	*	*k[f#c#g#]	*	*k[]	*	*k[f#c#g#]	*	*k[f#c#g#]	*	*k[f#c#g#]	*
*	*	*	*	*	*	*	*	*	*	*	*	*	*	*	*	*	*	*	*	*
!	!	!	!LO:DY:rj	!	!	!	!	!	!	!	!LO:TX:a:i:t=dolce	!	!LO:TX:t=P:problem:brak znaków przy kluczu	!	!	!	!	!	!	!
8AA/	.	8AA'\L	p	4cc#\	Bie-	.	[2A/	.	4e/	.	4cc#\	p	2r	.	2r	.	2r	.	2r	.
8r	.	(8E\	.	.	.	.	.	.	.	.	.	.	.	.	.	.	.	.	.	.
4r	.	8A\	.	(16b#X\LL	-dnej	.	.	.	(16d#X/LL	.	(16b#X\LL	.	.	.	.	.	.	.	.	.
.	.	.	.	16cc#\JJ)	.	.	.	.	16e/JJ)	.	16cc#\JJ)	.	.	.	.	.	.	.	.	.
.	.	8E\J)	.	(16b#\LL	to	.	.	.	(16d#/LL	.	(16b#\LL	.	.	.	.	.	.	.	.	.
.	.	.	.	16cc#\JJ)	.	.	.	.	16e/JJ)	.	16cc#\JJ)	.	.	.	.	.	.	.	.	.
=52	=52	=52	=52	=52	=52	=52	=52	=52	=52	=52	=52	=52	=52	=52	=52	=52	=52	=52	=52	=52
*	*	*	*	*	*	*	*	*	*	*	*	*	*	*	*	*	*^	*	*	*
*	*	*rep	*	*	*	*	*	*	*	*	*	*	*	*	*	*	*	*	*	*	*
8AA/	.	8AA'\L	.	4a/	mat-	.	4.A/]	.	4.c#/	.	(4a/	.	2r	.	2r	.	(<4a/	2r	.	(4aa\	.
8r	.	(8E\	.	.	.	.	.	.	.	.	.	.	.	.	.	.	.	.	.	.	.
4r	.	8A\	.	8e/	-ki	.	.	.	.	.	8e/)	.	.	.	.	.	8e/)	.	.	8ee\)	.
.	.	8E\J)	.	8r	.	.	8r	.	8r	.	8r	.	.	.	.	.	8r	.	.	8r	.
*	*	*Xrep	*	*	*	*	*	*	*	*	*	*	*	*	*	*	*	*	*	*	*
*	*	*	*	*	*	*	*	*	*	*	*	*	*	*	*	*	*v	*v	*	*	*
!!LO:LB:g=original
=53	=53	=53	=53	=53	=53	=53	=53	=53	=53	=53	=53	=53	=53	=53	=53	=53	=53	=53	=53	=53
8E\	.	8EE'/L	.	4dd\	dni	.	(<2G#/	.	4b\	.	4dd\	.	2r	.	2r	.	2r	.	2r	.
8r	.	(8BB/	.	.	.	.	.	.	.	.	.	.	.	.	.	.	.	.	.	.
4r	.	8E/	.	(16cc#\LL	za-	.	.	.	(16a#X\LL	.	(16cc#\LL	.	.	.	.	.	.	.	.	.
.	.	.	.	16dd\JJ)	.	.	.	.	16b\JJ)	.	16dd\JJ)	.	.	.	.	.	.	.	.	.
.	.	8BB/J)	.	(16cc#\LL	-gro-	.	.	.	(16a#\LL	.	(16cc#\LL	.	.	.	.	.	.	.	.	.
.	.	.	.	16dd\JJ)	.	.	.	.	16b\JJ)	.	16dd\JJ)	.	.	.	.	.	.	.	.	.
=54	=54	=54	=54	=54	=54	=54	=54	=54	=54	=54	=54	=54	=54	=54	=54	=54	=54	=54	=54	=54
*	*	*	*	*	*	*	*	*	*	*	*	*	*	*	*	*	*^	*	*	*
*	*	*rep	*	*	*	*	*	*	*	*	*	*	*	*	*	*	*	*	*	*	*
8E\	.	8EE'/L	.	4b\	-żo-	.	4.e\)	.	(4g#/	.	(4b\	.	2r	.	2r	.	(4b/	2r	.	(4bb\	.
8r	.	(8BB/	.	.	.	.	.	.	.	.	.	.	.	.	.	.	.	.	.	.	.
4r	.	8E/	.	8e/	-ne;	.	.	.	8e/)	.	8e/)	.	.	.	.	.	8e/)	.	.	8ee\)	.
.	.	8BB/J)	.	8r	.	.	8r	.	8r	.	8r	.	.	.	.	.	8r	.	.	8r	.
*	*	*Xrep	*	*	*	*	*	*	*	*	*	*	*	*	*	*	*	*	*	*	*
*	*	*	*	*	*	*	*	*	*	*	*	*	*	*	*	*	*v	*v	*	*	*
=55	=55	=55	=55	=55	=55	=55	=55	=55	=55	=55	=55	=55	=55	=55	=55	=55	=55	=55	=55	=55
!	!	!LO:TX:t=P:problem:mixed beam	!	!	!	!	!	!	!	!	!	!	!	!	!	!	!	!	!	!
8AA/	.	8AA'/L	.	8cc#\	Jej	.	4e\	.	8a/	.	8cc#\	.	2r	.	2r	.	2r	.	2r	.
8r	.	(8A\	.	4cc#^\	by	.	.	.	4a^/	.	4cc#^\	.	.	.	.	.	.	.	.	.
!LO:TX:t=P:problem:mixed beam	!	!	!	!	!	!	!	!	!	!	!	!	!	!	!	!	!	!	!	!
(8F#\L	.	8F#\	.	.	.	.	4f#\	.	.	.	.	.	.	.	.	.	.	.	.	.
8BB/J)	.	8BB\J)	.	8dd#X\	nieść	.	.	.	8a/	.	8dd#X\	.	.	.	.	.	.	.	.	.
=56	=56	=56	=56	=56	=56	=56	=56	=56	=56	=56	=56	=56	=56	=56	=56	=56	=56	=56	=56	=56
8C#/	.	8C#'\L	.	4ee\	ul-	.	4.e\	.	4g#/	.	4ee\	.	2r	.	2r	.	2r	.	2r	.
8r	.	(8c#\	.	.	.	.	.	.	.	.	.	.	.	.	.	.	.	.	.	.
(8A\L	.	8A\	.	4cc#\	-gę	.	.	.	4a/	.	4cc#\	.	.	.	.	.	.	.	.	.
8F#\J)	.	8F#\J)	.	.	.	.	8f#\	.	.	.	.	.	.	.	.	.	.	.	.	.
=57	=57	=57	=57	=57	=57	=57	=57	=57	=57	=57	=57	=57	=57	=57	=57	=57	=57	=57	=57	=57
!	!	!LO:TX:t=P:problem:mixed beam	!	!	!	!	!	!	!	!	!	!	!	!	!	!	!	!	!	!
8B\	.	(8B\L	.	8b/	dziew-	.	8e\	.	(8g#/L	.	(8b/L	.	2r	.	2r	.	2r	.	2r	.
8r	.	8BB/J)	.	16g#/	-cze	.	4B/	.	8e/J)	.	8g#/J)	.	.	.	.	.	.	.	.	.
.	.	.	.	16g#/	stra-	.	.	.	.	.	.	.	.	.	.	.	.	.	.	.
!	!	!LO:TX:t=P:problem:mixed beam	!	!	!	!	!	!	!	!	!	!	!	!	!	!	!	!	!	!
8BB/	.	(8B\L	.	(8f#/L	-pio-	.	.	.	(8e/L	.	(8f#/L	.	.	.	.	.	.	.	.	.
8r	.	8BB/J)	.	8b/J)	.	.	8B/	.	8d#X/J)	.	8b/J)	.	.	.	.	.	.	.	.	.
=58	=58	=58	=58	=58	=58	=58	=58	=58	=58	=58	=58	=58	=58	=58	=58	=58	=58	=58	=58	=58
*	*	*	*	*	*	*	*	*	*	*	*	*	*	*	*	*	*^	*	*	*
8E\	.	8E\	.	8e/	-ne	.	8e\	.	8e/	.	8e/	.	2r	.	2r	.	8r	2re	.	8r	.
8r	.	8r	.	(16e/LL	Kwiat-	.	8r	.	8r	.	(16e/LL	.	.	.	.	.	(16e/LL	.	.	(16ee\LL	.
.	.	.	.	16f#/JJ)	.	.	.	.	.	.	16f#/JJ)	.	.	.	.	.	16f#/JJ)	.	.	16ff#\JJ)	.
4r	.	4r	.	(16g#/LL	-ki	.	4r	.	4r	.	(16g#/LL	.	.	.	.	.	(16g#/LL	.	.	(16gg#\LL	.
.	.	.	.	16a/JJ)	.	.	.	.	.	.	16a/JJ)	.	.	.	.	.	16a/JJ)	.	.	16aa\JJ)	.
.	.	.	.	(16b/LL	do	.	.	.	.	.	(16b/LL	.	.	.	.	.	(16b/LL	.	.	(16bb\LL	.
.	.	.	.	16cc#/JJ)	.	.	.	.	.	.	16cc#/JJ)	.	.	.	.	.	16cc#/JJ)	.	.	16ccc#\JJ)	.
!!LO:PB:g=original
=59	=59	=59	=59	=59	=59	=59	=59	=59	=59	=59	=59	=59	=59	=59	=59	=59	=59	=59	=59	=59	=59
!	!	!LO:TX:t=//	!	!	!	!	!	!	!	!	!LO:TX:t=P:problem:mixed beam	!	!	!	!	!	!	!	!	!	!
!	!	!	!	!	!	!	!	!	!	!	!	!	!	!LO:DY:rj	!	!	!	!	!	!	!
8E\	p	8E\yy	pyy	(8.dd\L	mia-	.	8r	.	8r	.	8dd\L	.	[2e/ [2ee	p	2r	.	(<8.dd/L	2r	.	(8.ddd\L	p
8r	.	8ryy	.	.	.	.	8B/	.	8d/ 8e	.	8g#/J	.	.	.	.	.	.	.	.	.	.
.	.	.	.	32ee\LL	.	.	.	.	.	.	.	.	.	.	.	.	32ee/LL	.	.	32eee\LL	.
.	.	.	.	32dd\JJJ)	.	.	.	.	.	.	.	.	.	.	.	.	32dd/JJJ)	.	.	32ddd\JJJ)	.
8E\	.	8E\yy	.	8cc#\	.	.	8r	.	8r	.	8r	.	.	.	.	.	8cc#/L	.	.	8ccc#\L	.
8r	.	8ryy	.	8dd\	-sta	.	8B/	.	8d/ 8e	.	8g#/	.	.	.	.	.	8dd'</J	.	.	8ddd'\J	.
=60	=60	=60	=60	=60	=60	=60	=60	=60	=60	=60	=60	=60	=60	=60	=60	=60	=60	=60	=60	=60	=60
8E\	.	8E\yy	.	4b\	nie-	.	8r	.	8r	.	8r	.	2e/] 2ee]	.	2r	.	(4b/	2r	.	(4bb\	.
8r	.	8ryy	.	.	.	.	8B/	.	8d/ 8e	.	8g#/	.	.	.	.	.	.	.	.	.	.
8E\	.	8E\yy	.	4e/	-sie	.	8r	.	8r	.	8r	.	.	.	.	.	4e/)	.	.	4ee\)	.
8r	.	8ryy	.	.	.	.	8B/	.	8d/ 8e	.	8g#/	.	.	.	.	.	.	.	.	.	.
=61	=61	=61	=61	=61	=61	=61	=61	=61	=61	=61	=61	=61	=61	=61	=61	=61	=61	=61	=61	=61	=61
8AA/	.	8AA/yy	.	8cc#\	czem	.	8r	.	8r	.	8r	.	2r	.	2r	.	8cc#/	2r	.	8ccc#'\	.
8r	.	8ryy	.	4a^>/	prę-	.	8A/	.	8c#/ 8e	.	8a/	.	.	.	.	.	4a/	.	.	4aa'^<\	.
8A\	.	8A\yy	.	.	.	.	8r	.	8r	.	8r	.	.	.	.	.	.	.	.	.	.
8r	.	8ryy	.	(16dd#X\LL	-dzej	.	8B#X/	.	8d#X/ 8f#	.	8a/	.	.	.	.	.	(<16dd#X/LL	.	.	(16ddd#X\LL	.
.	.	.	.	16ff#\JJ)	.	.	.	.	.	.	.	.	.	.	.	.	16ff#/JJ)	.	.	16fff#\JJ)	.
=62	=62	=62	=62	=62	=62	=62	=62	=62	=62	=62	=62	=62	=62	=62	=62	=62	=62	=62	=62	=62	=62
8AA/	.	8AA/yy	.	4ee\	nie-	.	8r	.	8r	.	8r	.	2r	.	2r	.	(4ee/	2r	.	(4eee\	.
8r	.	8ryy	.	.	.	.	8A/	.	8c#/ 8e	.	8a/	.	.	.	.	.	.	.	.	.	.
8A\L	.	8A\Lyy	.	8cc#\	-sie	.	8r	.	8r	.	8r	.	.	.	.	.	8cc#/)	.	.	8ccc#\)	.
!	!	!	!	!	!	!	!	!	!	!	!	!LO:HP:a	!	!	!	!	!	!	!	!	!
8Gn\J	.	8Gn\Jyy	.	8cc#\	za	.	8A/	<	8e/	.	8cc#\	<	.	.	.	.	8r	.	.	8r	.
=63	=63	=63	=63	=63	=63	=63	=63	=63	=63	=63	=63	=63	=63	=63	=63	=63	=63	=63	=63	=63	=63
!	!LO:HP:a	!	!LO:HP:a	!	!	!LO:HP:b	!	!	!	!	!	!	!	!	!	!	!	!	!	!	!
8F#\	<	8F#\yy	<	4dd\	garść	<	8A/	.	16f#'/LL	<	8g#/ 8dd	.	2r	.	2r	.	2rcc	2re	.	2r	.
.	.	.	.	.	.	.	.	.	(16a/	.	.	.	.	.	.	.	.	.	.	.	.
8r	.	8ryy	.	.	.	.	8r	.	16g#X/	.	8r	.	.	.	.	.	.	.	.	.	.
.	.	.	.	.	.	.	.	.	16a/JJ)	.	.	.	.	.	.	.	.	.	.	.	.
8E\	.	8E\yy	.	4ee\	pie-	[[	8A/	.	16cc#'/LL	.	8a\ 8ee	.	.	.	.	.	.	.	.	.	.
.	.	.	.	.	.	.	.	.	(16a/	.	.	.	.	.	.	.	.	.	.	.	.
8r	[[	8ryy	[[	.	.	.	8r	[	16g#/	.	8r	[[	.	.	.	.	.	.	.	.	.
.	.	.	.	.	.	.	.	.	16a/JJ)	[[	.	.	.	.	.	.	.	.	.	.	.
*	*	*	*	*	*	*	*	*	*	*	*	*	*	*	*	*	*v	*v	*	*	*
=64	=64	=64	=64	=64	=64	=64	=64	=64	=64	=64	=64	=64	=64	=64	=64	=64	=64	=64	=64	=64
*	*	*	*	*	*	*	*	*	*	*	*	*	*^	*	*	*	*	*	*	*
!	!	!	!	!	!	!LO:DY:b:rj	!	!	!	!	!	!LO:DY:a	!	!	!	!	!LO:DY:rj	!	!	!	!LO:DY:rj
8D\	f	8D\yy	f	(8ff#\L	-nię-	f	8D/ 8A	f	8f#\ 8dd	f	8d\ 8a 8ff#	f	8dd/	8dd\	.	8D\ 8A	f	8a\ 8ff#	.	8fff#\	f
8r	.	8ryy	.	32ff#\LL	.	.	8r	.	8r	.	8r	.	8r	8ryy	.	8r	.	8r	.	8r	.
.	.	.	.	32dd\	.	.	.	.	.	.	.	.	.	.	.	.	.	.	.	.	.
.	.	.	.	32a\	.	.	.	.	.	.	.	.	.	.	.	.	.	.	.	.	.
.	.	.	.	32f#\JJJ)	.	.	.	.	.	.	.	.	.	.	.	.	.	.	.	.	.
8r;	.	8r;yy	.	8d;/	-dzy	.	8r	.	8r;	.	8r;	.	8r;	8ryy	.	8r;	.	8r;	.	8r;	.
8r	.	8B#X\	.	8b#X\	za	.	8B#X/	p	8b#X\	.	8b#X\	p	8r	8ryy	.	8r	.	8r	.	8r	.
*	*	*	*	*	*	*	*	*	*	*	*	*	*v	*v	*	*	*	*	*	*	*
!!LO:LB:g=original
=65	=65	=65	=65	=65	=65	=65	=65	=65	=65	=65	=65	=65	=65	=65	=65	=65	=65	=65	=65	=65
2r	.	(8c#\L	.	(8cc#/L	garść	.	(8c#/L	.	(8cc#/L	.	(8cc#/L	.	2r	.	2r	.	2r	.	2r	.
.	.	8A\J)	.	8a/J)	.	.	8A/J)	.	8a/J)	.	8a/J)	.	.	.	.	.	.	.	.	.
.	.	(8F#\L	.	(8f#/L	pie-	.	(8F#/L	.	(8f#/L	.	(8f#/L	.	.	.	.	.	.	.	.	.
.	.	8D#X\J)	.	8d#X/J)	.	.	8D#X/J)	.	8d#X/J)	.	8d#X/J)	.	.	.	.	.	.	.	.	.
=66	=66	=66	=66	=66	=66	=66	=66	=66	=66	=66	=66	=66	=66	=66	=66	=66	=66	=66	=66	=66
!	!	!	!	!	!	!LO:HP:a	!	!	!	!	!	!	!	!	!	!	!	!	!	!
4r	.	8E\	.	(<8e/	-nię-	<	8E/	.	8e/	.	8e/	.	4r	.	4r	.	4r	.	4r	.
!	!	!	!	!	!	!LO:HP:a	!	!	!	!	!	!	!	!	!	!	!	!	!	!
.	.	8r	.	4cc#\)	.	[ >	8r	.	8r	.	8r	.	.	.	.	.	.	.	.	.
8r	.	8r	.	.	.	.	8r	.	8r	.	8r	.	8r	.	8r	.	8r	.	8r	.
!	!	!	!	!	!	!	!	!	!	!	!	!LO:DY:rj	!	!	!	!	!	!	!	!LO:DY:rj
8E\	.	8E\	.	8b\	.	]]	8B\ 8e	.	8c#/ 8e	.	8B/ 8g#	f	8e/ 8ee	.	8EE/ 8E	.	8b\ 8dd	.	8gg#\	f
=67	=67	=67	=67	=67	=67	=67	=67	=67	=67	=67	=67	=67	=67	=67	=67	=67	=67	=67	=67	=67
*	*	*	*	*	*	*	*	*	*	*	*	*	*	*	*	*	*^	*	*	*
4A\	.	4A\	.	4a/	-dzy	.	4A\ 4e	.	4c#/ 4e	.	4c#/ 4a	.	4e/ 4ee	.	4AA\ 4A	.	4cc#/	4a\	.	4aa\	.
4r	.	(4e\	.	4r	.	.	(4e\	.	(4ee\	.	(4ee\	.	4r	.	4r	.	4r	4ryy	.	4r	.
*	*	*	*	*	*	*	*	*	*	*	*	*	*	*	*	*	*v	*v	*	*	*
=68	=68	=68	=68	=68	=68	=68	=68	=68	=68	=68	=68	=68	=68	=68	=68	=68	=68	=68	=68	=68
!	!	!	!LO:DY:rj	!	!	!	!	!	!	!	!	!	!	!	!	!	!	!	!	!
2r	.	8d\L)	p	2r	.	.	8d/L)	.	8ffn\L)	p	8ffn\L)	p	2r	.	2r	.	2r	.	2r	.
.	.	(8B\	.	.	.	.	(8B/	.	(8dd\	.	(8dd\	.	.	.	.	.	.	.	.	.
.	.	8cn\)	.	.	.	.	8cn/)	.	8ee\)	.	8ee\)	.	.	.	.	.	.	.	.	.
.	.	(8A\J	.	.	.	.	(8A/J	.	(8ccn\J	.	(8ccn\J	.	.	.	.	.	.	.	.	.
=69	=69	=69	=69	=69	=69	=69	=69	=69	=69	=69	=69	=69	=69	=69	=69	=69	=69	=69	=69	=69
2r	.	8B\L)	.	2r	.	.	8B/L)	.	8dd\L)	.	8dd\L)	.	2r	.	2r	.	2r	.	2r	.
.	.	(8G#\	.	.	.	.	(8G#/	.	(8b\	.	(8b\	.	.	.	.	.	.	.	.	.
.	.	8A\	.	.	.	.	8A/	.	8ccn\	.	8ccn\	.	.	.	.	.	.	.	.	.
.	.	8Gn\J	.	.	.	.	8Gn/J	.	8b\J	.	8b\J	.	.	.	.	.	.	.	.	.
=70	=70	=70	=70	=70	=70	=70	=70	=70	=70	=70	=70	=70	=70	=70	=70	=70	=70	=70	=70	=70
2r	.	8Fn\)	.	2r	.	.	8Fn/)	.	8a/)	.	8a/)	.	2r	.	2r	.	2r	.	2r	.
!	!	!LO:TX:b:i:t=rall&colon;	!	!	!	!	!	!	!	!	!LO:TX:a:t=rall.	!	!	!	!	!	!	!	!	!
.	.	(8F\L	.	.	.	.	(8F/L	.	(8fn/L	.	(8fn/L	.	.	.	.	.	.	.	.	.
.	.	8E\	.	.	.	.	8E/	.	8e/	.	8e/	.	.	.	.	.	.	.	.	.
.	.	8D#X\J	.	.	.	.	8D#X/J	.	8d#X/J	.	8d#X/J	.	.	.	.	.	.	.	.	.
=71	=71	=71	=71	=71	=71	=71	=71	=71	=71	=71	=71	=71	=71	=71	=71	=71	=71	=71	=71	=71
*	*	*	*	*	*	*	*	*	*	*	*	*	*	*	*	*	*^	*	*	*
!	!	!LO:TX:a:t=a tempo	!	!	!	!	!	!	!	!	!LO:TX:a:t=a tempo	!	!	!	!	!	!	!	!	!	!
4r	.	8E\)	.	2r	.	.	8E/)	.	8e/)	.	8e/)	.	4r	.	4r	.	4r	4ryy	.	4r	.
.	.	8r	.	.	.	.	8r	.	8r	.	8r	.	.	.	.	.	.	.	.	.	.
!	!	!	!LO:DY:rj	!	!	!	!	!LO:DY:rj	!	!	!	!	!	!	!	!LO:DY:rj	!	!	!LO:DY:rj	!	!LO:DY:rj
4E\	.	4E\	f	.	.	.	4E/	f	4B/ 4g#	.	4g#/ 4ee	f	4e/ 4ee	.	4EE/ 4E	f	4g#/ 4ee	4g#\	f	4eee\	f
=72	=72	=72	=72	=72	=72	=72	=72	=72	=72	=72	=72	=72	=72	=72	=72	=72	=72	=72	=72	=72	=72
4A\	.	4A\	.	2r	.	.	4A/	.	4c#/ 4a	.	4a/	.	4e/ 4ee	.	4AA/ 4A	.	4cc#/	4a\	.	4aa\	.
4r	.	4r	.	.	.	.	4r	.	4r	.	4r	.	4r	.	4r	.	4r	4ryy	.	4r	.
*	*	*	*	*	*	*	*	*	*	*	*	*	*	*	*	*	*v	*v	*	*	*
==	==	==	==	==	==	==	==	==	==	==	==	==	==	==	==	==	==	==	==	==
*-	*-	*-	*-	*-	*-	*-	*-	*-	*-	*-	*-	*-	*-	*-	*-	*-	*-	*-	*-	*-
!!!system-decoration: s1,s2,s3,s4{(s5,s6,s7)}s8{(s9,s10)}
!!!RDF**kern: < = below
!!!RDF**kern: > = above
!!!ENC: Marta Chmielewska
!!!END: 2021-06-12
!!!ENC: Andrzej Gręziak
!!!END: 2021-05-21
